X:1
T: Adieu Mon Ami
T: 8 x 32S 3C (RSCDS 24)
P: Miss Margaret Gordon
C: Robert Mackintosh
C: arr. T. Traub 4-21-96, rev. 2-12-2004
M: 4/4
L: 1/8
%
K: Gm
|: d|"Gm"B<GG>A "F"F>Ac<A|"Gm"B<GG>A B>cd<g|"Gm"B<GG>A "F"F>Ac<d|"Eb"B<G"D"A>^F "Gm"G2 G :|
d|"Gm"g<dd>f "F"A<Fc<A|"Gm"g<dd=e "F"f>ga>g|"Bb"f<dd>f "F"F>A c>d|"Eb"B<G"D"A<^F G2 G>^f|
"Gm"g<dd>f "F"F>Ac<A|"Gm"g<dd>=e "F"f>ag<a|"Bb"f<gd<f "F"c<fA>c|"Gm"d>B "D"d/c/B/A/ "Gm"G2 G |]
